src/actions/22/filename-bpm-amarok.svg

<svg xmlns="http://www.w3.org/2000/svg" viewBox="0 0 22 22">
  <defs id="defs3051">
    <style type="text/css" id="current-color-scheme">
      .ColorScheme-Text {
        color:#363636;
      }
      </style>
  </defs>
 <path 
    style="fill:currentColor;fill-opacity:1;stroke:none" 
    d="M 11 3 A 8 8 0 0 0 3 11 A 8 8 0 0 0 11 19 A 8 8 0 0 0 19 11 A 8 8 0 0 0 11 3 z M 11 4 A 7 7 0 0 1 18 11 A 7 7 0 0 1 11 18 A 7 7 0 0 1 4 11 A 7 7 0 0 1 11 4 z M 11 6 A 5 5 0 0 0 7.6816406 7.2675781 L 8.390625 7.9765625 A 4 4 0 0 1 11 7 A 4 4 0 0 1 15 11 L 16 11 A 5 5 0 0 0 11 6 z M 12.34375 8.1660156 L 10.197266 13.142578 C 10.074466 13.282368 9.9865731 13.452179 9.9394531 13.636719 C 9.9324531 13.666519 9.9249219 13.698216 9.9199219 13.728516 L 9.9140625 13.742188 L 9.9199219 13.742188 C 9.8299219 14.303648 10.140852 14.828938 10.638672 14.955078 C 11.137452 15.080448 11.659373 14.764692 11.845703 14.226562 L 11.853516 14.228516 L 11.853516 14.199219 C 11.861516 14.174519 11.870053 14.1501 11.876953 14.125 C 11.921853 13.94305 11.923313 13.752999 11.882812 13.574219 L 12.34375 8.1660156 z M 6.4746094 8.8886719 A 5 5 0 0 0 6 11 L 7 11 A 4 4 0 0 1 7.2382812 9.6523438 L 6.4746094 8.8886719 z "
    class="ColorScheme-Text"
    />  
</svg>

<svg xmlns="http://www.w3.org/2000/svg" viewBox="0 0 22 22">
    <path d="M11 3a8 8 0 0 0-8 8 8 8 0 0 0 8 8 8 8 0 0 0 8-8 8 8 0 0 0-8-8zm0 1a7 7 0 0 1 7 7 7 7 0 0 1-7 7 7 7 0 0 1-7-7 7 7 0 0 1 7-7zm0 2a5 5 0 0 0-3.318 1.268l.709.709A4 4 0 0 1 11 7a4 4 0 0 1 4 4h1a5 5 0 0 0-5-5zm1.344 2.166-2.147 4.977c-.123.14-.21.31-.258.494l-.02.092-.005.013h.006c-.09.562.22 1.087.719 1.213.498.125 1.02-.19 1.207-.728l.008.002v-.03l.023-.074a1.2 1.2 0 0 0 .006-.55l.46-5.409zm-5.87.723A5 5 0 0 0 6 11h1a4 4 0 0 1 .238-1.348l-.763-.763z" style="fill:currentColor;fill-opacity:1;stroke:none;color:#050505;opacity:.7"/>
</svg>
